!!!!SEGMENT:46Fujimusubi_c.krn
!!!OTL: ふじむすび
!!!OPR:Eiga Banso Kyokusyu,jidai-geki,zenpen
!!!YOY:1929
!!!ONB:Buyo,Dancing,Quiet
**kern
*clefG2
*k[]
*C:
*M2/4
=1
!LO:TX:a:B:t=Andante
8eeL
8cc
8b
8bJ
=2
8ccL
8bJ
8eL
8aJ
=3||
*M3/4
8aL
8aJ
4b
4r
=4||
*M2/4
4e
8eL
8dJ
=5
4e
8eL
8dJ
=6
8eL
8f
8e
8cJ
=7
4B
8aL
8bJ
=8
4cc
4r
=9
8ccL
8cc
8cc
8ccJ
=10
8ccL
8b
8f
8aJ
=11
4b
8bL
8bJ
=12
4b
4r
=13
8ddL
8dd
8ee
8aJ
=14
8bL
8b
8cc
8aJ
=15
4b
8BL
8BJ
=16
4B
4r
=17
4ee
4cc
=18
8aL
8a
8a
8aJ
=19
8fL
8a
8b
8gJ
=20
4f#X
8bL
8gJ
=21
4f#X
8f#L
8f#J
=22
4f#X
4c
=23
4B
4r
==
*-
!!!ENC: Yukiko Yoden
!!!END: 2023/06/11
